X:136
T:Litchfield Tattoo
I:abc2nwc
M:4/4
L:1/8
K:G
BB|:B2A2A2cc|c2B2B2GG|G2F2G2A2|B4B2BB|
  |B2A2A2cc|c2B2B2c2|de dc B2A2|1G4G2BB:|2G4B2c2|
  |d3e d2B2|c3d c2A2|B3c B2G2|A6AB|
  |c2Ac B2GB|A4A2B2|c2Ac B2GB|A4B2c2|
  |d3e d2B2|c3d c2A2|B3c B2G2|A4A2B2|
  |c2Ac B2GB|A4A2B2|c2Ac B2G2|A6 BB|
